img/svg/at24-6.svg

<svg width="27" height="24" viewBox="0 0 27 24" fill="none" xmlns="http://www.w3.org/2000/svg">
<path d="M15.75 21C15.9375 21 16.125 21.0938 16.2656 21.2344C16.4062 21.375 16.5 21.5625 16.5 21.75V23.25C16.5 23.4844 16.4062 23.6719 16.2656 23.8125C16.125 23.9531 15.9375 24 15.75 24H0.75C0.515625 24 0.328125 23.9531 0.1875 23.8125C0.046875 23.6719 0 23.4844 0 23.25V21.75C0 21.5625 0.046875 21.375 0.1875 21.2344C0.328125 21.0938 0.515625 21 0.75 21H15.75ZM25.5 6H26.25C26.4375 6 26.625 6.09375 26.7656 6.23438C26.9062 6.375 27 6.5625 27 6.75V8.25C27 9.09375 26.7188 9.79688 26.25 10.4531C25.7812 11.1094 25.125 11.5781 24.375 11.8125V17.4375C24.375 18.4688 23.9531 19.3594 23.2031 20.0625C22.4062 20.8125 21.4688 21.0938 20.4375 21C19.5 20.9062 18.75 20.5312 18.1406 19.7812C17.5312 19.0781 17.25 18.2344 17.25 17.2969V16.125C17.25 15.6094 17.0625 15.1875 16.6875 14.8125C16.3125 14.4375 15.8906 14.25 15.375 14.25H15V19.5H1.5V3C1.5 2.15625 1.78125 1.45312 2.34375 0.890625C2.90625 0.328125 3.65625 0 4.5 0H12C12.8438 0 13.5469 0.328125 14.1094 0.890625C14.6719 1.45312 15 2.15625 15 3V12H15.375C16.5 12 17.4375 12.4219 18.2812 13.2188C19.0781 14.0625 19.5 15 19.5 16.125V17.4375C19.5 17.8594 19.6406 18.1875 19.9688 18.4688C20.25 18.75 20.625 18.8438 21.0469 18.75C21.3281 18.7031 21.6094 18.5625 21.7969 18.2812C21.9844 18 22.125 17.7188 22.125 17.3438V11.8125C21.3281 11.5781 20.6719 11.1094 20.2031 10.4531C19.7344 9.79688 19.5 9.09375 19.5 8.25V6.75C19.5 6.5625 19.5469 6.375 19.6875 6.23438C19.8281 6.09375 20.0156 6 20.25 6H21V3.75C21 3.5625 21.0469 3.375 21.1875 3.23438C21.3281 3.09375 21.5156 3 21.75 3C21.9375 3 22.125 3.09375 22.2656 3.23438C22.4062 3.375 22.5 3.5625 22.5 3.75V6H24V3.75C24 3.5625 24.0469 3.375 24.1875 3.23438C24.3281 3.09375 24.5156 3 24.75 3C24.9375 3 25.125 3.09375 25.2656 3.23438C25.4062 3.375 25.5 3.5625 25.5 3.75V6ZM12.1875 8.25C12.2812 8.10938 12.2812 7.96875 12.1875 7.78125C12.0938 7.59375 11.9062 7.5 11.7188 7.5H9L9.5625 5.10938C9.5625 4.96875 9.51562 4.82812 9.42188 4.6875C9.32812 4.59375 9.1875 4.5 9 4.5H5.8125C5.625 4.5 5.53125 4.54688 5.4375 4.64062C5.34375 4.73438 5.25 4.82812 5.25 4.92188L4.5 9.9375C4.45312 10.125 4.5 10.2656 4.64062 10.3594C4.73438 10.4531 4.875 10.5 5.0625 10.5H7.82812L6.75 14.3906C6.70312 14.5781 6.75 14.7188 6.84375 14.8125C6.9375 14.9531 7.125 15 7.3125 15C7.5 15 7.6875 14.9531 7.78125 14.7656L12.1875 8.25Z" fill="#FFD500"/>
</svg>

<svg width="27" height="24" viewBox="0 0 27 24" fill="none" xmlns="http://www.w3.org/2000/svg"><path d="M15.75 21c.188 0 .375.094.516.234.14.141.234.328.234.516v1.5a.776.776 0 01-.234.563c-.141.14-.328.187-.516.187h-15c-.234 0-.422-.047-.563-.188-.14-.14-.187-.328-.187-.562v-1.5c0-.188.047-.375.188-.516A.776.776 0 01.75 21h15zM25.5 6h.75c.188 0 .375.094.516.234.14.141.234.329.234.516v1.5c0 .844-.281 1.547-.75 2.203a3.624 3.624 0 01-1.875 1.36v5.624c0 1.032-.422 1.922-1.172 2.625-.797.75-1.734 1.032-2.765.938-.938-.094-1.688-.469-2.297-1.219-.61-.703-.891-1.547-.891-2.484v-1.172c0-.516-.188-.938-.563-1.313-.375-.374-.796-.562-1.312-.562H15v5.25H1.5V3c0-.844.281-1.547.844-2.11A3.01 3.01 0 014.5 0H12c.844 0 1.547.328 2.11.89.562.563.89 1.266.89 2.11v9h.375c1.125 0 2.063.422 2.906 1.219.797.844 1.219 1.781 1.219 2.906v1.313c0 .421.14.75.469 1.03.281.282.656.376 1.078.282.281-.047.562-.188.75-.469.187-.281.328-.562.328-.937v-5.532a3.56 3.56 0 01-1.922-1.359A3.634 3.634 0 0119.5 8.25v-1.5c0-.188.047-.375.188-.516A.776.776 0 0120.25 6H21V3.75c0-.188.047-.375.188-.516A.776.776 0 0121.75 3c.188 0 .375.094.516.234.14.141.234.329.234.516V6H24V3.75c0-.188.047-.375.188-.516A.776.776 0 0124.75 3c.188 0 .375.094.516.234.14.141.234.329.234.516V6zM12.187 8.25c.094-.14.094-.281 0-.469a.516.516 0 00-.468-.281H9l.563-2.39a.756.756 0 00-.141-.423A.594.594 0 009 4.5H5.812c-.187 0-.28.047-.375.14-.093.094-.187.188-.187.282L4.5 9.938c-.047.187 0 .328.14.421.094.094.235.141.423.141h2.765L6.75 14.39c-.047.188 0 .329.094.422.093.141.281.188.468.188.188 0 .375-.047.47-.234l4.405-6.516z" fill="#FFD500"/></svg>
